X:1128
T:Winter in Asheville
C:G. F. Handel
L:1/8
M:4/4
R:Reel
S:Colin Hume's website,  colinhume.com  - chords can also be printed below the stave.
% %MIDI gchord f2zc2zf2zc2zf2zc2zf2zc2z
%%MIDI gchord fHIfHIfHIfHI
%%MIDI program 73       % Flute
%%MIDI chordprog 6      % Harpsichord
%%MIDI bassprog 6       % Harpsichord
Q:1/4=114
K:F
P:A
c |: "F"(3fef (3fef "C"(3gfg c>c | "C"(3gfg (3gfg "F"(3aga c>c |\
"F"(3aga (3aga "C7"b>c (3bag |1 "F"(3aba "C"(3gag (3efg c>c :|2 (3aba "C"(3cfe "F"f3-f/a/ |
P:B
|: "Dm"(3agf (3fed "G"(3dc=B B>g | "C"(3gfe (3edc "Am"(3c=BA A>f |\
"F"(3fed (3dc=B "G"(3BAG (3GFE |1 "C"E>c "G"D>=B "C"c3-c/a/ :|2 "C"E>c "G"D>=B "C"c3c |]

